X: 26
M: none
L: 1/8
K: F
c2 |\
f3 g fg a2 | c2 cd c2 BA |\
f3 g f>g (a/g/f/e/) | d4 d2 ||\
cB |\
c3 d cdcA | c4 f3 g |\
(ag)(fe) (fd) (cA) | (cA) (BA) G2 (AB) |\
c3 d (cd)(cA) | c4 f2 |]


